X: 36
T: No_130_Opening_Song_of_the_War_Camp.krn
N: Derived from No_130_Opening_Song_of_the_War_Camp.krn
%%abc-version 2.0
%%abcx-abcm2ps-target-version 5.9.1 (29 Sep 2008)
%%abc-creator hum2abc beta
%%abcx-conversion-date 2019/03/15 08:37:56
%%humdrum-veritas 325870735
%%humdrum-veritas-data 1292064091
%%linebreak <none>
%%barnumbers 0
L: 1/4
M: 2/4
K: G clef=bass
G, [I:setbarnb 1]| 
DD ||  
[M:3/4]DB,/A,/ A,/ z/ ]|:  
[M:2/4]DD | 
B,/A,/A, | 
G,E,/D,/ ||  
[M:3/4]A,A,/ z/ C/A,/ | 
DCA, ||  
[M:2/4]G,E, | 
A,/G,/A, ||  
[M:3/4]G,/G,/ E,//D,// z/ A,/A,/ ||  
[M:2/4]G,E, | 
G,E, | 
G,z :|]  



